X:155
T:Une Autre Fois
M:C
L:1/8
S:Frederic Paris
R:Schottische
K:G
Bc|:"G"d4 cBAG|"C"e3d "Ami"cBAG|"D"A2GA A2GA|"Emi"B3c "D"BAGF|"C"E3F "Em
i"G2FG|"D"A2AB AGBA|
1 "G"G3A "D"GABc:|
2 "G"G3 A GF"D"GA||
"Emi"G3A G2FG|"C"A3B "D"AGBA|"G"G3A "D"GFED|"C"G3A "D"GFGA|
"Emi"G3A G2FG|"Ami"A2AB "G/B"AGcB|"C"A3B "D"ABBc||
